src/topics/icons/q.svg

<svg height="295" preserveAspectRatio="xMidYMid" viewBox="0 0 256 295" width="256" xmlns="http://www.w3.org/2000/svg"><path d="m49.0679795 101.515932c.0362442 30.473086.0790781 60.946173.0378916 91.417612 26.3560817 15.225835 52.6923929 30.484619 79.0221159 45.758231 26.328075-15.224188 52.65615-30.448375 78.984224-45.672563-.036244-30.473087-.079078-60.946174-.037891-91.41926-26.357729-15.2225402-52.692394-30.4846192-79.022116-45.756583-26.328075 15.2241873-52.6561497 30.4483748-78.9842245 45.672563" fill="#b7a634"/><path d="m128.412998 78.985254-.046129-.0247118-.308075-.1729834c-19.734936 11.4300847-39.4912887 22.8239252-59.2542313 34.2045862-.0049424 22.838752-.0082374 45.679152-.0115322 68.517905 19.7876545 11.39384 39.5703675 22.799212 59.3316615 34.237535 5.034641-2.967078 54.194879-31.296818 59.255878-34.204587.00659-22.838752.014828-45.679152.021418-68.517904-19.682218-11.311467-39.349607-22.659179-58.98899-34.03984" fill="#f9df34"/><g fill="#524739"><path d="m92.5873102 126.980737 1.6524034 2.863287-3.1334708 1.808912 4.4547346 7.713413c.4168076.724882.8154932 1.136747 1.1960567 1.23889.3805634.102143.9324629-.056014 1.6556983-.474468.2405293-.138388.464584-.281717.675459-.429988.2092276-.146624.4019806-.299838.5799063-.454699l1.9143493 3.314691c-.327844.268537-.70676.540368-1.136748.815494-.429987.275125-.8566794.535424-1.2784295.777601-.6622793.383859-1.3163213.700171-1.9604786.952233-.6458046.252061-1.2685449.377268-1.8715157.377268-.6029707 0-1.1746397-.166394-1.7133595-.497533-.5403672-.33114-1.036253-.887982-1.4876573-1.672173l-5.306472-9.191185-2.5914561 1.497542-1.654051-2.863287 2.5931037-1.495894-2.6968937-4.670553 4.2784563-2.471192 2.6968938 4.670553z"/><path d="m95.1870037 117.565496 4.6787894 8.105509.0906103-.052719c.0214171-1.215826.3344346-2.275144.9406996-3.17301.606267-.899514 1.309732-1.581562 2.113693-2.044498 1.144986-.66228 2.173001-1.047786 3.087342-1.159814.912694-.112027 1.739719-.013179 2.481077.294896.741356.309723 1.425053.810551 2.054383 1.50578.627683.695228 1.220769 1.525548 1.777611 2.489313l5.532174 9.581633-4.278456 2.471192-5.079123-8.799089c-.743005-1.28502-1.497541-2.12852-2.265258-2.528853-.767717-.401981-1.662289-.306428-2.687009.285011-1.164755.672163-1.808913 1.505779-1.930825 2.500846-.121912.995066.275126 2.285028 1.191114 3.87318l4.715034 8.166464-4.280104 2.469545-12.421856-21.515841z"/><path d="m122.114755 125.723723c1.001655.252062 2.105454.029655 3.311396-.667221.86327-.497534 1.482715-1.143338 1.855041-1.935767.373974-.790781.492591-1.467888.354205-2.031319l3.766095-2.174649c.476117 2.215835.32455 4.085704-.457994 5.607958-.780896 1.523901-2.056031 2.794093-3.823758 3.815519-1.22571.706761-2.444832 1.149928-3.654067 1.326207-1.210884.176277-2.365754.100494-3.466258-.228998-1.100504-.327844-2.126872-.887981-3.079105-1.677115-.950585-.790781-1.774316-1.787495-2.471192-2.993437-.672164-1.164755-1.107094-2.359164-1.306436-3.584875-.197696-1.224063-.156509-2.406941.123559-3.545336.278421-1.140043.784192-2.201008 1.515664-3.18619.729826-.983533 1.687001-1.818796 2.873172-2.502493 1.326207-.766069 2.629348-1.176287 3.909425-1.232301 1.280078-.056013 2.486019.164746 3.616177.663927 1.133454.497533 2.158174 1.219121 3.077457 2.161469.919284.942347 1.685353 2.039556 2.301504 3.28998l-11.23898 6.489349c.859975 1.352565 1.790791 2.153231 2.794095 2.405292zm.103789-10.988565c-.83691-.266888-1.77761-.098847-2.822101.504123-.683695.393744-1.184524.838558-1.502484 1.329502-.31796.492591-.515655.986829-.589791 1.484362-.072488.499181-.056013.970355.054367 1.416817.110379.444814.242176.82373.39539 1.136748l6.960523-4.018158c-.827026-.968707-1.658994-1.586504-2.495904-1.853394z"/><path d="m130.554697 105.05962 1.25207 2.171354.090611-.052719c.021417-1.217474.344319-2.281734.970355-3.19278.626035-.909398 1.390457-1.626043 2.294913-2.148288 1.144985-.660633 2.174649-1.047786 3.087342-1.159813.912693-.112028 1.739719-.01318 2.481076.296542.741358.308076 1.425054.810552 2.054384 1.50578.627683.695228 1.220768 1.523901 1.77761 2.487666l5.532175 9.58328-4.278457 2.469545-5.079123-8.797442c-.743004-1.286667-1.497541-2.130167-2.265258-2.5305-.76607-.400333-1.662289-.306428-2.687009.285011-1.164755.673812-1.808912 1.507427-1.930825 2.500846-.121912.995066.275127 2.286676 1.191115 3.87318l4.715033 8.166464-4.280103 2.471193-8.99349-15.58004z"/></g><path d="m189.056038 109.455046c-19.725051-11.352654-39.380908-22.7102504-58.42391-33.7614191-.019769-.0098847-.08402-.0477763-.10379-.0576611l-.30478-.1713359c-1.367393-.7677169-3.034623-.7545372-4.390485.0329492-19.545477 11.3361794-39.114019 22.6394095-58.6891511 33.9261659-1.3723349.79078-2.2174825 2.253726-2.2174825 3.838583l-.0115322 67.97589c0 1.58321.8467949 3.047803 2.2174825 3.838584 19.599844 11.303231 39.1947453 22.616345 58.7682303 33.96241.686991.400333 1.454708.598028 2.222425.598028.779249 0 1.558498-.204285 2.253726-.614503 2.916007-1.721596 5.848487-3.415187 8.782615-5.107129 2.075801-1.196057 4.151602-2.393761 6.222461-3.60135 2.107103-1.230653 27.619684-15.940833 28.634519-16.532271 5.001692-2.892942 10.005032-5.785883 15.014961-8.667293 1.373982-.792429 2.222425-2.255374 2.222425-3.840232l.023064-67.977537c0-1.586505-.846795-3.051098-2.220778-3.841879zm-6.663979 69.254319c-2.99179 1.723245-52.079539 30.079344-54.283841 31.366011-18.09736-10.487737-36.2111939-20.947467-54.3299704-31.397312l.0098847-62.853934c18.1023019-10.43996 36.1980137-20.891453 54.2739567-31.3742476 17.748097 10.2949839 36.011851 20.8486186 54.351387 31.4088446z" fill="#524839"/><path d="m4.89460674 76.0445362c.05766114 47.4369928.12520704 94.8756338.05930859 142.3142738 41.08932567 23.700375 82.14734957 47.455116 123.19548967 71.229626 41.044843-23.698727 82.089687-47.399102 123.136179-71.097829-.057661-47.43864-.125207-94.875633-.059308-142.314274-41.090973-23.6970795-82.147349-47.4567626-123.195489-71.2296253-41.0448444 23.698727-82.0896886 47.3991014-123.13618026 71.0978285zm123.62218126-19.7514104c26.166623 15.1615839 52.371138 30.2803339 78.595423 45.3513082l-.029654 91.290757c-6.743058 3.871534-13.476231 7.761189-20.207756 11.650845-13.499297-23.352761-26.98047-46.717052-40.461644-70.081345-12.843606 7.40369-25.687212 14.80738-38.530819 22.21107 13.479527 23.364292 26.962348 46.728584 40.459996 70.082993-6.726583 3.919309-13.500943 7.756245-20.207757 11.708505-26.329723-15.240662-52.6858039-30.435196-79.0517704-45.616549l.0148272-91.290758c26.3330172-15.1615842 52.6545022-30.3429376 78.9479802-45.5720675l.411865.2306446z" fill="#f9df34"/><path d="m128.149405 294.16014c-.79243 0-1.583211-.205932-2.291619-.616151-49.7071946-28.791029-87.6992935-50.756627-123.18889912-71.224682-1.41681649-.818789-2.28997084-2.331157-2.28667592-3.968734.06095606-43.985563.00658984-88.712482-.04612891-131.9665714l-.01317969-10.334523c-.00164746-1.6342814.86985943-3.1466506 2.28667593-3.9637913l123.13617971-71.09947594c1.416817-.81549321 3.15983-.81549321 4.576647.00329493 36.599995 21.19788111 79.857379 46.23599391 123.1889 71.22797781 1.416816.8171407 2.28997 2.32951 2.288322 3.9654387-.062603 43.7433852-.008237 88.2198902.042835 131.2334512l.014827 11.069291c.001647 1.635929-.871507 3.148298-2.286676 3.965439l-123.13618 71.09618c-.706761.408571-1.495895.612856-2.285028.612856zm-118.62049037-78.440562c34.29354897 19.782712 71.08959107 41.058024 118.62378437 68.587098l118.556239-68.452007-.009885-8.426763c-.049424-42.151938-.102143-85.710808-.047776-128.6123404-41.669233-24.0348091-83.163833-48.0514961-118.623785-68.5887453l-118.55788597 68.4553009.00988477 7.6919956c.05107129 42.3924672.10543751 86.2001042.04942383 129.3454612zm118.60566237 27.359385c-.790781 0-1.581562-.205932-2.289971-.616151-26.3264272-15.239014-52.6808614-30.430252-79.0435329-45.608311-1.4168164-.81714-2.2899708-2.327862-2.2899708-3.963791l.0148271-91.292406c0-1.634281.8748018-3.1450029 2.2899708-3.960496 30.845413-17.7579825 55.9280068-32.2375176 78.9380958-45.5671248 1.403637-.8105509 3.126881-.8187882 4.537108-.0263595l.410217.2322921c.016474.0082373.092258.0510713.107085.060956 25.509287 14.779373 51.947741 30.0348622 78.582244 45.3430701 1.418464.8154932 2.293266 2.3278621 2.293266 3.9654391l-.028007 91.290758c-.001648 1.635929-.878096 3.148298-2.296561 3.962144-6.739762 3.871533-13.469641 7.757894-20.197872 11.644254-2.187828 1.266898-4.981922.515655-6.245525-1.668878-12.736521-22.036439-25.458215-44.079467-38.179909-66.127438l-30.608179 17.645955c12.716752 22.043029 25.438446 44.08441 38.171672 66.117554 1.261956 2.179591.520598 4.968742-1.655698 6.237287-2.794094 1.627691-5.596425 3.242203-8.398756 4.856716-3.939079 2.266906-7.876512 4.533812-11.789232 6.840258-.714998.42175-1.518958.634272-2.321272.634272zm-74.480066-52.83078c24.8354751 14.301609 49.659418 28.613103 74.463591 42.96743 3.179601-1.858336 6.372379-3.696902 9.563512-5.535468 1.47283-.848443 2.94566-1.696885 4.418491-2.546975-12.736523-22.038086-25.458217-44.08441-38.178263-66.132381-.606266-1.05108-.769365-2.298208-.454699-3.469553.314665-1.171345 1.080734-2.169706 2.131815-2.775972l38.530818-22.21107c2.186181-1.261954 4.981923-.510713 6.24223 1.675468 12.720046 22.044677 25.440093 44.086058 38.17332 66.12085 4.654077-2.68701 9.308154-5.374019 13.967174-8.052791l.026359-85.999113c-25.232512-14.5058943-50.268978-28.9524801-74.486655-42.9822583-21.818974 12.6360262-45.5852469 26.3544342-74.3828658 42.9361293z" fill="#524839"/></svg>

<?xml version="1.0" encoding="UTF-8" standalone="no" ?>
<svg width="256px" height="295px" viewBox="0 0 256 295" version="1.1" xmlns="http://www.w3.org/2000/svg" xmlns:xlink="http://www.w3.org/1999/xlink" preserveAspectRatio="xMidYMid">
    <g>
        <path d="M49.0679795,101.515932 C49.1042237,131.989018 49.1470576,162.462105 49.1058711,192.933544 C75.4619528,208.159379 101.798264,223.418163 128.127987,238.691775 C154.456062,223.467587 180.784137,208.2434 207.112211,193.019212 C207.075967,162.546125 207.033133,132.073038 207.07432,101.599952 C180.716591,86.3774118 154.381926,71.1153328 128.052204,55.843369 C101.724129,71.0675563 75.3960543,86.2917438 49.0679795,101.515932" fill="#B7A634"></path>
        <path d="M128.412998,78.985254 L128.366869,78.9605422 L128.058794,78.7875588 C108.323858,90.2176435 88.5675053,101.611484 68.8045627,112.992145 C68.7996203,135.830897 68.7963253,158.671297 68.7930305,181.51005 C88.580685,192.90389 108.363398,204.309262 128.124692,215.747585 C133.159333,212.780507 182.319571,184.450767 187.38057,181.542998 C187.38716,158.704246 187.395398,135.863846 187.401988,113.025094 C167.71977,101.713627 148.052381,90.365915 128.412998,78.985254" fill="#F9DF34"></path>
        <path d="M92.5873102,126.980737 L94.2397136,129.844024 L91.1062428,131.652936 L95.5609774,139.366349 C95.977785,140.091231 96.3764706,140.503096 96.7570341,140.605239 C97.1375975,140.707382 97.689497,140.549225 98.4127324,140.130771 C98.6532617,139.992383 98.8773164,139.849054 99.0881914,139.700783 C99.297419,139.554159 99.490172,139.400945 99.6680977,139.246084 L101.582447,142.560775 C101.254603,142.829312 100.875687,143.101143 100.445699,143.376269 C100.015712,143.651394 99.5890196,143.911693 99.1672695,144.15387 C98.5049902,144.537729 97.8509482,144.854041 97.2067909,145.106103 C96.5609863,145.358164 95.938246,145.483371 95.3352752,145.483371 C94.7323045,145.483371 94.1606355,145.316977 93.6219157,144.985838 C93.0815485,144.654698 92.5856627,144.097856 92.1342584,143.313665 L86.8277864,134.12248 L84.2363303,135.620022 L82.5822793,132.756735 L85.175383,131.260841 L82.4784893,126.590288 L86.7569456,124.119096 L89.4538394,128.789649 L92.5873102,126.980737" fill="#524739"></path>
        <path d="M95.1870037,117.565496 L99.8657931,125.671005 L99.9564034,125.618286 C99.9778205,124.40246 100.290838,123.343142 100.897103,122.445276 C101.50337,121.545762 102.206835,120.863714 103.010796,120.400778 C104.155782,119.738498 105.183797,119.352992 106.098138,119.240964 C107.010832,119.128937 107.837857,119.227785 108.579215,119.53586 C109.320571,119.845583 110.004268,120.346411 110.633598,121.04164 C111.261281,121.736868 111.854367,122.567188 112.411209,123.530953 L117.943383,133.112586 L113.664927,135.583778 L108.585804,126.784689 C107.842799,125.499669 107.088263,124.656169 106.320546,124.255836 C105.552829,123.853855 104.658257,123.949408 103.633537,124.540847 C102.468782,125.21301 101.824624,126.046626 101.702712,127.041693 C101.5808,128.036759 101.977838,129.326721 102.893826,130.914873 L107.60886,139.081337 L103.328756,141.550882 L90.9069,120.035041 L95.1870037,117.565496" fill="#524739"></path>
        <path d="M122.114755,125.723723 C123.11641,125.975785 124.220209,125.753378 125.426151,125.056502 C126.289421,124.558968 126.908866,123.913164 127.281192,123.120735 C127.655166,122.329954 127.773783,121.652847 127.635397,121.089416 L131.401492,118.914767 C131.877609,121.130602 131.726042,123.000471 130.943498,124.522725 C130.162602,126.046626 128.887467,127.316818 127.11974,128.338244 C125.89403,129.045005 124.674908,129.488172 123.465673,129.664451 C122.254789,129.840728 121.099919,129.764945 119.999415,129.435453 C118.898911,129.107609 117.872543,128.547472 116.92031,127.758338 C115.969725,126.967557 115.145994,125.970843 114.449118,124.764901 C113.776954,123.600146 113.342024,122.405737 113.142682,121.180026 C112.944986,119.955963 112.986173,118.773085 113.266241,117.63469 C113.544662,116.494647 114.050433,115.433682 114.781905,114.4485 C115.511731,113.464967 116.468906,112.629704 117.655077,111.946007 C118.981284,111.179938 120.284425,110.76972 121.564502,110.713706 C122.84458,110.657693 124.050521,110.878452 125.180679,111.377633 C126.314133,111.875166 127.338853,112.596754 128.258136,113.539102 C129.17742,114.481449 129.943489,115.578658 130.55964,116.829082 L119.32066,123.318431 C120.180635,124.670996 121.111451,125.471662 122.114755,125.723723 L122.114755,125.723723 L122.114755,125.723723 Z M122.218544,114.735158 C121.381634,114.46827 120.440934,114.636311 119.396443,115.239281 C118.712748,115.633025 118.211919,116.077839 117.893959,116.568783 C117.575999,117.061374 117.378304,117.555612 117.304168,118.053145 C117.23168,118.552326 117.248155,119.0235 117.358535,119.469962 C117.468914,119.914776 117.600711,120.293692 117.753925,120.60671 L124.714448,116.588552 C123.887422,115.619845 123.055454,115.002048 122.218544,114.735158 L122.218544,114.735158 L122.218544,114.735158 Z" fill="#524739"></path>
        <path d="M130.554697,105.05962 L131.806767,107.230974 L131.897378,107.178255 C131.918795,105.960781 132.241697,104.896521 132.867733,103.985475 C133.493768,103.076077 134.25819,102.359432 135.162646,101.837187 C136.307631,101.176554 137.337295,100.789401 138.249988,100.677374 C139.162681,100.565346 139.989707,100.664194 140.731064,100.973916 C141.472422,101.281992 142.156118,101.784468 142.785448,102.479696 C143.413131,103.174924 144.006216,104.003597 144.563058,104.967362 L150.095233,114.550642 L145.816776,117.020187 L140.737653,108.222745 C139.994649,106.936078 139.240112,106.092578 138.472395,105.692245 C137.706325,105.291912 136.810106,105.385817 135.785386,105.977256 C134.620631,106.651068 133.976474,107.484683 133.854561,108.478102 C133.732649,109.473168 134.129688,110.764778 135.045676,112.351282 L139.760709,120.517746 L135.480606,122.988939 L126.487116,107.408899 L130.554697,105.05962" fill="#524739"></path>
        <path d="M189.056038,109.455046 C169.330987,98.102392 149.67513,86.7447956 130.632128,75.6936269 C130.612359,75.6837422 130.548108,75.6458506 130.528338,75.6359658 L130.223558,75.4646299 C128.856165,74.696913 127.188935,74.7100927 125.833073,75.4975791 C106.287596,86.8337585 86.719054,98.1369886 67.1439219,109.423745 C65.771587,110.214525 64.9264394,111.677471 64.9264394,113.262328 L64.9149072,181.238218 C64.9149072,182.821428 65.7617021,184.286021 67.1323897,185.076802 C86.7322337,196.380033 106.327135,207.693147 125.90062,219.039212 C126.587611,219.439545 127.355328,219.63724 128.123045,219.63724 C128.902294,219.63724 129.681543,219.432955 130.376771,219.022737 C133.292778,217.301141 136.225258,215.60755 139.159386,213.915608 C141.235187,212.719551 143.310988,211.521847 145.381847,210.314258 C147.48895,209.083605 173.001531,194.373425 174.016366,193.781987 C179.018058,190.889045 184.021398,187.996104 189.031327,185.114694 C190.405309,184.322265 191.253752,182.85932 191.253752,181.274462 L191.276816,113.296925 C191.276816,111.71042 190.430021,110.245827 189.056038,109.455046 L189.056038,109.455046 L189.056038,109.455046 Z M182.392059,178.709365 C179.400269,180.43261 130.31252,208.788709 128.108218,210.075376 C110.010858,199.587639 91.8970241,189.127909 73.7782476,178.678064 L73.7881323,115.82413 C91.8904342,105.38417 109.986146,94.932677 128.062089,84.4498824 C145.810186,94.7448663 164.07394,105.298501 182.413476,115.858727 L182.392059,178.709365 L182.392059,178.709365 Z" fill="#524839"></path>
        <path d="M4.89460674,76.0445362 C4.95226788,123.481529 5.01981378,170.92017 4.95391533,218.35881 C46.043241,242.059185 87.1012649,265.813926 128.149405,289.588436 C169.194248,265.889709 210.239092,242.189334 251.285584,218.490607 C251.227923,171.051967 251.160377,123.614974 251.226276,76.176333 C210.135303,52.4792535 169.078927,28.7195704 128.030787,4.9467077 C86.9859426,28.6454347 45.9410984,52.3458091 4.89460674,76.0445362 L4.89460674,76.0445362 L4.89460674,76.0445362 Z M128.516788,56.2931258 C154.683411,71.4547097 180.887926,86.5734597 207.112211,101.644434 L207.082557,192.935191 C200.339499,196.806725 193.606326,200.69638 186.874801,204.586036 C173.375504,181.233275 159.894331,157.868984 146.413157,134.504691 C133.569551,141.908381 120.725945,149.312071 107.882338,156.715761 C121.361865,180.080053 134.844686,203.444345 148.342334,226.798754 C141.615751,230.718063 134.841391,234.554999 128.134577,238.507259 C101.804854,223.266597 75.4487731,208.072063 49.0828066,192.89071 L49.0976338,101.599952 C75.430651,86.4383678 101.752136,71.2570144 128.045614,56.0278845 L128.457479,56.2585291 L128.516788,56.2931258 L128.516788,56.2931258 Z" fill="#F9DF34"></path>
        <path d="M128.149405,294.16014 C127.356975,294.16014 126.566194,293.954208 125.857786,293.543989 C76.1505914,264.75296 38.1584925,242.787362 2.66888688,222.319307 C1.25207039,221.500518 0.378916038,219.98815 0.382210961,218.350573 C0.443167018,174.36501 0.388800804,129.638091 0.336082052,86.3840016 L0.322902363,76.0494786 C0.321254902,74.4151972 1.19276179,72.902828 2.60957829,72.0856873 L125.745758,0.986211362 C127.162575,0.17071815 128.905588,0.17071815 130.322405,0.989506285 C166.9224,22.1873874 210.179784,47.2255002 253.511305,72.2174841 C254.928121,73.0346248 255.801275,74.5469941 255.799627,76.1829228 C255.737024,119.926308 255.79139,164.402813 255.842462,207.416374 L255.857289,218.485665 C255.858936,220.121594 254.985782,221.633963 253.570613,222.451104 L130.434433,293.547284 C129.727672,293.955855 128.938538,294.16014 128.149405,294.16014 L128.149405,294.16014 L128.149405,294.16014 Z M9.52891463,215.719578 C43.8224636,235.50229 80.6185057,256.777602 128.152699,284.306676 L246.708938,215.854669 L246.699053,207.427906 C246.649629,165.275968 246.59691,121.717098 246.651277,78.8155656 C204.982044,54.7807565 163.487444,30.7640695 128.027492,10.2268203 L9.46960603,78.6821212 L9.4794908,86.3741168 C9.53056209,128.766584 9.58492831,172.574221 9.52891463,215.719578 L9.52891463,215.719578 L9.52891463,215.719578 Z M128.134577,243.078963 C127.343796,243.078963 126.553015,242.873031 125.844606,242.462812 C99.5181788,227.223798 73.1637446,212.03256 46.8010731,196.854501 C45.3842567,196.037361 44.5111023,194.526639 44.5111023,192.89071 L44.5259294,101.598304 C44.5259294,99.964023 45.4007312,98.4533011 46.8159002,97.637808 C77.6613132,79.8798255 102.743907,65.4002904 125.753996,52.0706832 C127.157633,51.2601323 128.880877,51.251895 130.291104,52.0443237 L130.701321,52.2766158 C130.717795,52.2848531 130.793579,52.3276871 130.808406,52.3375718 C156.317693,67.1169448 182.756147,82.372434 209.39065,97.6806419 C210.809114,98.4961351 211.683916,100.008504 211.683916,101.646081 L211.655909,192.936839 C211.654261,194.572768 210.777813,196.085137 209.359348,196.898983 C202.619586,200.770516 195.889707,204.656877 189.161476,208.543237 C186.973648,209.810135 184.179554,209.058892 182.915951,206.874359 C170.17943,184.83792 157.457736,162.794892 144.736042,140.746921 L114.127863,158.392876 C126.844615,180.435905 139.566309,202.477286 152.299535,224.51043 C153.561491,226.690021 152.820133,229.479172 150.643837,230.747717 C147.849743,232.375408 145.047412,233.98992 142.245081,235.604433 C138.306002,237.871339 134.368569,240.138245 130.455849,242.444691 C129.740851,242.866441 128.936891,243.078963 128.134577,243.078963 L128.134577,243.078963 L128.134577,243.078963 Z M53.654511,190.248183 C78.4899861,204.549792 103.313929,218.861286 128.118102,233.215613 C131.297703,231.357277 134.490481,229.518711 137.681614,227.680145 C139.154444,226.831702 140.627274,225.98326 142.100105,225.13317 C129.363582,203.095084 116.641888,181.04876 103.921842,159.000789 C103.315576,157.949709 103.152477,156.702581 103.467143,155.531236 C103.781808,154.359891 104.547877,153.36153 105.598958,152.755264 L144.129776,130.544194 C146.315957,129.28224 149.111699,130.033481 150.372006,132.219662 C163.092052,154.264339 175.812099,176.30572 188.545326,198.340512 C193.199403,195.653502 197.85348,192.966493 202.5125,190.287721 L202.538859,104.288608 C177.306347,89.7827137 152.269881,75.3361279 128.052204,61.3063497 C106.23323,73.9423759 82.4669571,87.6607839 53.6693382,104.242479 L53.654511,190.248183 L53.654511,190.248183 Z" fill="#524839"></path>
    </g>
</svg>
